packages/ffe-icons/icons/open/400/sm/pan_tool.svg

<svg xmlns="http://www.w3.org/2000/svg" height="20" viewBox="0 -960 960 960" width="20"><path d="M412-48q-21.95 0-40.98-9Q352-66 338-83L68.15-408.7Q59-420 59.92-434q.93-14 11.08-24l4-4q17-17 41.5-20.5T162-473l126 74v-381q0-15.3 10.29-25.65Q308.58-816 323.79-816t25.71 10.35Q360-795.3 360-780v444q0 21.45-18 31.72-18 10.28-36-.72l-113-67 201 243q4 4 8.5 6.5t9.5 2.5h260q29.7 0 50.85-21.15Q744-162.3 744-192v-540q0-15.3 10.29-25.65Q764.58-768 779.79-768t25.71 10.35Q816-747.3 816-732v540q0 60-42 102T672-48H412Zm63.79-864q15.21 0 25.71 10.35T512-876v360q0 15.3-10.29 25.65Q491.42-480 476.21-480t-25.71-10.35Q440-500.7 440-516v-360q0-15.3 10.29-25.65Q460.58-912 475.79-912Zm152 48q15.21 0 25.71 10.35T664-828v312q0 15.3-10.29 25.65Q643.42-480 628.21-480t-25.71-10.35Q592-500.7 592-516v-312q0-15.3 10.29-25.65Q612.58-864 627.79-864ZM468-300Z"/></svg>

<svg xmlns="http://www.w3.org/2000/svg" height="20" viewBox="0 -960 960 960" width="20"><path d="M412-48q-21.951 0-40.976-9Q352-66 338-83L68.147-408.704Q59-420 59.923-434T71-458l4-4q17-17 41.5-20.5T162-473l126 74v-381q0-15.3 10.289-25.65 10.29-10.35 25.5-10.35Q339-816 349.5-805.65 360-795.3 360-780v444q0 21.447-18 31.723Q324-294 306-305l-113-67 201 243q4 4 8.5 6.5t9.5 2.5h260q29.7 0 50.85-21.15Q744-162.3 744-192v-540q0-15.3 10.289-25.65 10.29-10.35 25.5-10.35Q795-768 805.5-757.65 816-747.3 816-732v540q0 60-42 102T672-48H412Zm63.789-864Q491-912 501.5-901.65 512-891.3 512-876v360q0 15.3-10.289 25.65-10.29 10.35-25.5 10.35Q461-480 450.5-490.35 440-500.7 440-516v-360q0-15.3 10.289-25.65 10.29-10.35 25.5-10.35Zm152 48Q643-864 653.5-853.65 664-843.3 664-828v312q0 15.3-10.289 25.65-10.29 10.35-25.5 10.35Q613-480 602.5-490.35 592-500.7 592-516v-312q0-15.3 10.289-25.65 10.29-10.35 25.5-10.35ZM468-300Z"/></svg>
